src/Resource_Files/fluent/insert-hyperlink.svg

<svg clip-rule="evenodd" fill-rule="evenodd" stroke-linejoin="round" stroke-miterlimit="2" viewBox="0 0 16 16" xmlns="http://www.w3.org/2000/svg"><path d="m8 6c.276 0 .5.224.5.5 0 .245-.177.45-.41.492l-.09.008h-2c-1.657 0-3 1.343-3 3 0 1.591 1.238 2.892 2.803 2.994l.197.006h2c.276 0 .5.224.5.5 0 .245-.177.45-.41.492l-.09.008h-2c-2.209 0-4-1.791-4-4 0-2.136 1.673-3.88 3.781-3.994l.219-.006zm6 0c2.209 0 4 1.791 4 4 0 2.136-1.673 3.88-3.781 3.994l-.219.006h-2c-.276 0-.5-.224-.5-.5 0-.245.177-.45.41-.492l.09-.008h2c1.657 0 3-1.343 3-3 0-1.591-1.238-2.892-2.803-2.994l-.197-.006h-2c-.276 0-.5-.224-.5-.5 0-.245.177-.45.41-.492l.09-.008zm-8 3.5h8c.276 0 .5.224.5.5 0 .245-.177.45-.41.492l-.09.008h-8c-.276 0-.5-.224-.5-.5 0-.245.177-.45.41-.492l.09-.008h8z" fill="#1abc9c" fill-rule="nonzero" transform="translate(-2 -2)"/></svg>

<?xml version="1.0" encoding="UTF-8" standalone="no"?>
<!DOCTYPE svg PUBLIC "-//W3C//DTD SVG 1.1//EN" "http://www.w3.org/Graphics/SVG/1.1/DTD/svg11.dtd">
<svg width="100%" height="100%" viewBox="0 0 16 16" version="1.1" xmlns="http://www.w3.org/2000/svg" xmlns:xlink="http://www.w3.org/1999/xlink" xml:space="preserve" xmlns:serif="http://www.serif.com/" style="fill-rule:evenodd;clip-rule:evenodd;stroke-linejoin:round;stroke-miterlimit:2;">
    <g transform="matrix(1,0,0,1,-2,-2)">
        <path d="M8,6C8.276,6 8.5,6.224 8.5,6.5C8.5,6.745 8.323,6.95 8.09,6.992L8,7L6,7C4.343,7 3,8.343 3,10C3,11.591 4.238,12.892 5.803,12.994L6,13L8,13C8.276,13 8.5,13.224 8.5,13.5C8.5,13.745 8.323,13.95 8.09,13.992L8,14L6,14C3.791,14 2,12.209 2,10C2,7.864 3.673,6.12 5.781,6.006L6,6L8,6ZM14,6C16.209,6 18,7.791 18,10C18,12.136 16.327,13.88 14.219,13.994L14,14L12,14C11.724,14 11.5,13.776 11.5,13.5C11.5,13.255 11.677,13.05 11.91,13.008L12,13L14,13C15.657,13 17,11.657 17,10C17,8.409 15.762,7.108 14.197,7.006L14,7L12,7C11.724,7 11.5,6.776 11.5,6.5C11.5,6.255 11.677,6.05 11.91,6.008L12,6L14,6ZM6,9.5L14,9.5C14.276,9.5 14.5,9.724 14.5,10C14.5,10.245 14.323,10.45 14.09,10.492L14,10.5L6,10.5C5.724,10.5 5.5,10.276 5.5,10C5.5,9.755 5.677,9.55 5.91,9.508L6,9.5L14,9.5L6,9.5Z" style="fill:rgb(26,188,156);fill-rule:nonzero;"/>
    </g>
</svg>
